apps/www/public/images/career/icons/offsite-light.svg

<svg width="49" height="49" viewBox="0 0 49 49" fill="none" xmlns="http://www.w3.org/2000/svg">
<rect x="0.615234" y="0.583008" width="48" height="48" rx="8" fill="#DDF3E4"/>
<path d="M10.7681 21.8865L24.47 17.4888H25.007L38.709 21.8865C39.1034 19.5185 38.15 14.3765 31.1812 12.7527L37.4394 8.52389C34.9303 6.77623 28.9312 4.70169 25.007 10.3848H24.47C20.5458 4.70169 14.5467 6.77623 12.0377 8.52389L18.2959 12.7527C11.327 14.3765 10.3737 19.5185 10.7681 21.8865Z" fill="#5BB98C" stroke="#299764" stroke-width="2" stroke-miterlimit="10" stroke-linejoin="bevel"/>
<path d="M20.9399 34.1702L22.6231 19.3773C22.7424 18.3291 23.6294 17.5374 24.6843 17.5374V17.5374C25.7132 17.5374 26.5867 18.2915 26.7366 19.3095L28.8885 33.915" stroke="#299764" stroke-width="2" stroke-miterlimit="10" stroke-linejoin="bevel"/>
<path d="M39.5092 40.4512C35.8861 36.3764 30.6041 33.8093 24.7226 33.8093C18.8411 33.8093 13.5591 36.3764 9.93604 40.4512" stroke="#299764" stroke-width="2" stroke-miterlimit="10" stroke-linejoin="bevel"/>
<path d="M6.31982 41.2867C8.04818 39.5584 9.77653 39.5584 11.5049 41.2867C13.2332 43.0151 14.9616 43.0151 16.6899 41.2867C18.4183 39.5584 20.1466 39.5584 21.875 41.2867C23.6034 43.0151 25.3317 43.0151 27.0601 41.2867C28.7884 39.5584 30.5168 39.5584 32.2451 41.2867C33.9735 43.0151 35.7018 43.0151 37.4302 41.2867C39.1585 39.5584 40.8869 39.5584 42.6152 41.2867" stroke="#299764" stroke-width="2" stroke-miterlimit="10" stroke-linejoin="bevel"/>
</svg>

<svg xmlns="http://www.w3.org/2000/svg" width="49" height="49" fill="none" viewBox="0 0 49 49"><rect width="48" height="48" x=".615" y=".583" fill="#ddf3e4" rx="8"/><path fill="#5bb98c" stroke="#299764" stroke-linejoin="bevel" stroke-miterlimit="10" stroke-width="2" d="m10.768 21.887 13.702-4.398h.537l13.702 4.398c.394-2.369-.559-7.51-7.528-9.134l6.258-4.23c-2.509-1.747-8.508-3.821-12.432 1.862h-.537c-3.924-5.683-9.923-3.609-12.432-1.861l6.258 4.229c-6.969 1.624-7.922 6.765-7.528 9.134Z"/><path stroke="#299764" stroke-linejoin="bevel" stroke-miterlimit="10" stroke-width="2" d="m20.94 34.17 1.683-14.793a2.074 2.074 0 0 1 4.113-.068l2.153 14.606"/><path stroke="#299764" stroke-linejoin="bevel" stroke-miterlimit="10" stroke-width="2" d="M39.51 40.451a19.73 19.73 0 0 0-14.787-6.642 19.73 19.73 0 0 0-14.787 6.642"/><path stroke="#299764" stroke-linejoin="bevel" stroke-miterlimit="10" stroke-width="2" d="M6.32 41.287q2.593-2.593 5.185 0 2.593 2.592 5.185 0 2.593-2.593 5.185 0 2.593 2.592 5.185 0 2.593-2.593 5.185 0 2.593 2.592 5.185 0 2.593-2.593 5.185 0"/></svg>
